**kern	**silbe	**harmony	**phrase	**leadinstrument	**rhyme	**timestamp	**harte
*ICvox	*	*M4/4	*	*	*	*	*M4/4
*VRlead	*	*	*	*	*	*	*
*Hstimme	*	*	*	*	*	*	*
*C:	*	*C:	*	*	*	*	*C:
*M4/4	*	*	*	*	*	*	*
*clefG2	*	*	*	*	*	*	*
r;	.	1r;	.	r	.	0	N.C.
=1	=1	=1	=1	=1	=1	=1	=1
*>Letter>A2	*>Letter>A2	*>Letter>A2	*>Letter>A2	*>Letter>A2	*>Letter>A2	*>Letter>A2	*>Letter>A2
*>Label>Intro	*>Label>Intro	*>Label>Intro	*>Label>Intro	*>Label>Intro	*>Label>Intro	*>Label>Intro	*>Label>Intro
1r	.	1N	newline	drums	.	0.302	N.C.
=2	=2	=2	=2	=2	=2	=2	=2
1r	.	1N	.	drums	.	1.916	N.C.
=3	=3	=3	=3	=3	=3	=3	=3
1r	.	2CM	newline	guitar	.	3.529	C:maj
.	.	2Am	.	guitar	.	5.021	A:min
=4	=4	=4	=4	=4	=4	=4	=4
1r	.	2FM	.	guitar	.	6.512	F:maj
.	.	2GM	.	guitar	.	8.003	G:maj
=5	=5	=5	=5	=5	=5	=5	=5
1r	.	2CM	.	guitar	.	9.494	C:maj
.	.	2Am	.	guitar	.	10.985	A:min
=6	=6	=6	=6	=6	=6	=6	=6
1r	.	2FM	.	guitar	.	12.476	F:maj
.	.	2GM	.	guitar	.	13.967	G:maj
=7	=7	=7	=7	=7	=7	=7	=7
*>Letter>B	*>Letter>B	*>Letter>B	*>Letter>B	*>Letter>B	*>Letter>B	*>Letter>B	*>Letter>B
*>Label>Verse	*>Label>Verse	*>Label>Verse	*>Label>Verse	*>Label>Verse	*>Label>Verse	*>Label>Verse	*>Label>Verse
8c	Oh	2CM	newline	voice	A	15.458	C:maj
8r	.	.	.	.	.	.	.
8c	Oh	.	.	.	A	.	.
8G	Oh	.	.	.	A	.	.
8A	Oh	2Am	.	voice	A	16.949	A:min
16A	Oh	.	.	.	A	.	.
[16c	_	.	.	.	.	.	.
8c]	_	.	.	.	.	.	.
16c	Oh	.	.	.	A	.	.
[16A	_	.	.	.	.	.	.
=8	=8	=8	=8	=8	=8	=8	=8
8A]	_	2FM	.	voice	.	18.44	F:maj
8r	.	.	.	.	.	.	.
4r	.	.	.	.	.	.	.
8G	You	2GM	.	voice	.	19.931	G:maj
8B	don't	.	.	.	.	.	.
8d	have	.	.	.	.	.	.
16f	to	.	.	.	.	.	.
[16e	go	.	.	.	A	.	.
=9	=9	=9	=9	=9	=9	=9	=9
16e]	_	2CM	.	voice	.	21.421	C:maj
8c	oh	.	.	.	A	.	.
16r	.	.	.	.	.	.	.
8r	.	.	.	.	.	.	.
8G	Oh	.	.	.	A	.	.
8A	Oh	2Am	.	voice	A	22.912	A:min
16A	oh	.	.	.	A	.	.
[16c	_	.	.	.	.	.	.
8c]	_	.	.	.	.	.	.
16c	oh	.	.	.	A	.	.
[16A	_	.	.	.	.	.	.
=10	=10	=10	=10	=10	=10	=10	=10
8A]	_	2FM	.	voice	.	24.403	F:maj
8r	.	.	.	.	.	.	.
4r	.	.	.	.	.	.	.
8G	You	2GM	.	voice	.	25.894	G:maj
8B	don't	.	.	.	.	.	.
8d	have	.	.	.	.	.	.
16f	to	.	.	.	.	.	.
[16e	go	.	.	.	A	.	.
=11	=11	=11	=11	=11	=11	=11	=11
8e]	_	2CM	newline	voice	.	27.385	C:maj
8c	oh	.	.	.	A	.	.
8r	.	.	.	.	.	.	.
8G	Oh	.	.	.	A	.	.
8A	Oh	2Am	.	voice	A	28.866	A:min
8r	.	.	.	.	.	.	.
8c	Oh	.	.	.	A	.	.
16c	Oh	.	.	.	A	.	.
[16A	_	.	.	.	.	.	.
=12	=12	=12	=12	=12	=12	=12	=12
8A]	_	2FM	.	voice	.	30.348	F:maj
8r	.	.	.	.	.	.	.
4r	.	.	.	.	.	.	.
8B	You	2GM	.	voice	.	31.83	G:maj
8B	don't	.	.	.	.	.	.
8G	have	.	.	.	.	.	.
8G	to	.	.	.	.	.	.
=13	=13	=13	=13	=13	=13	=13	=13
[4.G	go	1Am	.	voice	A	33.312	A:min
16G]	_	.	.	.	.	.	.
[16A	_	.	.	.	.	.	.
2A]	_	.	.	.	.	.	.
=14	=14	=14	=14	=14	=14	=14	=14
1r	.	1Am	.	voice	.	36.275	A:min
=15	=15	=15	=15	=15	=15	=15	=15
8c	I	2CM	newline	voice	B	39.239	C:maj
8r	.	.	.	.	.	.	.
8c	I	.	.	.	B	.	.
8G	I	.	.	.	B	.	.
8A	I	2Am	.	voice	B	40.726	A:min
16A	I	.	.	.	B	.	.
[16c	_	.	.	.	.	.	.
8c]	_	.	.	.	.	.	.
16c	I	.	.	.	B	.	.
[16A	_	.	.	.	.	.	.
=16	=16	=16	=16	=16	=16	=16	=16
4A]	_	2FM	.	voice	.	42.213	F:maj
4r	.	.	.	.	.	.	.
8G	All	2GM	.	voice	.	43.699	G:maj
8B	those	.	.	.	.	.	.
8d	tears	.	.	.	.	.	.
8f	I	.	.	.	B	.	.
=17	=17	=17	=17	=17	=17	=17	=17
16e	cry	2CM	.	voice	B	45.186	C:maj
8.c	_	.	.	.	.	.	.
8r	.	.	.	.	.	.	.
8G	I	.	.	.	B	.	.
8.A	I	2Am	.	voice	B	46.673	A:min
16A	I	.	.	.	B	.	.
8.c	_	.	.	.	.	.	.
16c	I	.	.	.	B	.	.
=18	=18	=18	=18	=18	=18	=18	=18
4A	_	2FM	.	voice	.	48.16	F:maj
4r	.	.	.	.	.	.	.
8G	All	2GM	.	voice	.	49.646	G:maj
8B	those	.	.	.	.	.	.
8d	tears	.	.	.	.	.	.
8f	I	.	.	.	B	.	.
=19	=19	=19	=19	=19	=19	=19	=19
8e	cry	2CM	newline	voice	B	51.133	C:maj
8c	_	.	.	.	.	.	.
8.r	.	.	.	.	.	.	.
8G	Oh	.	.	.	A	.	.
.	.	2Am	.	voice	.	52.601	A:min
4A	Oh	.	.	.	A	.	.
8.c	I	.	.	.	B	.	.
=20	=20	=20	=20	=20	=20	=20	=20
16c	I	2FM	.	voice	B	54.068	F:maj
8.A	_	.	.	.	.	.	.
4r	.	.	.	.	.	.	.
8B	Ba-	2GM	.	voice	.	55.536	G:maj
8B	-by	.	.	.	.	.	.
16A	please	.	.	.	.	.	.
8.G	_	.	.	.	.	.	.
=21	=21	=21	=21	=21	=21	=21	=21
4r	.	1Am	.	voice	.	57.004	A:min
8e	don't	.	.	.	.	.	.
4G	go	.	.	.	A	.	.
4.A	_	.	.	.	.	.	.
=22	=22	=22	=22	=22	=22	=22	=22
1r	.	1Am	.	voice	.	59.939	A:min
=23	=23	=23	=23	=23	=23	=23	=23
*>Letter>C	*>Letter>C	*>Letter>C	*>Letter>C	*>Letter>C	*>Letter>C	*>Letter>C	*>Letter>C
*>Label>Bridge	*>Label>Bridge	*>Label>Bridge	*>Label>Bridge	*>Label>Bridge	*>Label>Bridge	*>Label>Bridge	*>Label>Bridge
4r	.	1Am	newline	voice	.	62.874	A:min
16r	.	.	.	.	.	.	.
16c	When	.	.	.	.	.	.
8d	I	.	.	.	.	.	.
8e	read	.	.	.	.	.	.
16g	the	.	.	.	.	.	.
[16e	let-	.	.	.	.	.	.
16e]	_	.	.	.	.	.	.
16e	-ter	.	.	.	.	.	.
16d	that	.	.	.	.	.	.
16c	you	.	.	.	.	.	.
=24	=24	=24	=24	=24	=24	=24	=24
8.d	wrote	1GM	.	voice	C	65.801	G:maj
8d	me	.	.	.	.	.	.
16c	it	.	.	.	.	.	.
16d	made	.	.	.	.	.	.
16c	me	.	.	.	.	.	.
8d	mad	.	.	.	D	.	.
8e	mad	.	.	.	D	.	.
16e	mad	.	.	.	D	.	.
8.d	_	.	.	.	.	.	.
=25	=25	=25	=25	=25	=25	=25	=25
4r	.	1Am	.	voice	.	68.728	A:min
16r	.	.	.	.	.	.	.
16c	When	.	.	.	.	.	.
8d	I	.	.	.	.	.	.
8e	read	.	.	.	.	.	.
8g	the	.	.	.	.	.	.
8e	words	.	.	.	.	.	.
16d	that	.	.	.	.	.	.
[16c	it	.	.	.	.	.	.
=26	=26	=26	=26	=26	=26	=26	=26
16c]	_	1GM	.	voice	.	71.655	G:maj
8d	told	.	.	.	C	.	.
16c	_	.	.	.	.	.	.
16d	me	.	.	.	.	.	.
16c	you	.	.	.	.	.	.
16d	made	.	.	.	.	.	.
16c	me	.	.	.	.	.	.
8d	sad	.	.	.	D	.	.
8e	sad	.	.	.	D	.	.
16e	sad	.	.	.	D	.	.
8.d	_	.	.	.	.	.	.
=27	=27	=27	=27	=27	=27	=27	=27
4r	.	1Am	newline	voice	.	74.583	A:min
16r	.	.	.	.	.	.	.
16E	But	.	.	.	.	.	.
16A	I	.	.	.	.	.	.
[16c	still	.	.	.	.	.	.
16c]	_	.	.	.	.	.	.
8e	love	.	.	.	.	.	.
16g	you	.	.	.	.	.	.
16e	so	.	.	.	A	.	.
8.d	_	.	.	.	.	.	.
=28	=28	=28	=28	=28	=28	=28	=28
4r	.	1GM	.	voice	.	77.514	G:maj
16r	.	.	.	.	.	.	.
16A	I	.	.	.	.	.	.
8c	can't	.	.	.	.	.	.
16e	let	.	.	.	.	.	.
8g	you	.	.	.	.	.	.
16e	go	.	.	.	A	.	.
4d	_	.	.	.	.	.	.
=29	=29	=29	=29	=29	=29	=29	=29
4r	.	1FM	.	voice	.	80.445	F:maj
16r	.	.	.	.	.	.	.
8.c	I	.	.	.	.	.	.
16c	love	.	.	.	.	.	.
8B	_	.	.	.	.	.	.
8.A	you	.	.	.	.	.	.
8r	.	.	.	.	.	.	.
=30	=30	=30	=30	=30	=30	=30	=30
4r	.	1GM	.	voice	.	83.376	G:maj
8cc	Ooh	.	.	.	.	.	.
8r	.	.	.	.	.	.	.
16cc	ba-	.	.	.	.	.	.
16cc	-by	.	.	.	.	.	.
16cc	I	.	.	.	.	.	.
8g	love	.	.	.	.	.	.
16a	ya	.	.	.	.	.	.
8cc	_	.	.	.	.	.	.
=31	=31	=31	=31	=31	=31	=31	=31
*>Letter>B	*>Letter>B	*>Letter>B	*>Letter>B	*>Letter>B	*>Letter>B	*>Letter>B	*>Letter>B
*>Label>Verse	*>Label>Verse	*>Label>Verse	*>Label>Verse	*>Label>Verse	*>Label>Verse	*>Label>Verse	*>Label>Verse
4c	Oh	2CM	newline	voice	.	86.307	C:maj
8c	oh	.	.	.	.	.	.
8G	oh	.	.	.	.	.	.
8.A	oh	2Am	.	voice	.	87.763	A:min
16A	oh	.	.	.	.	.	.
8.c	_	.	.	.	.	.	.
16c	oh	.	.	.	.	.	.
=32	=32	=32	=32	=32	=32	=32	=32
4A	_	2FM	.	voice	.	89.219	F:maj
4r	.	.	.	.	.	.	.
8G	Ev-	2GM	.	voice	.	90.675	G:maj
8B	-ery	.	.	.	.	.	.
8d	move	.	.	.	.	.	.
8f	I	.	.	.	.	.	.
=33	=33	=33	=33	=33	=33	=33	=33
16e	make	2CM	.	voice	.	92.131	C:maj
8c	_	.	.	.	.	.	.
16r	.	.	.	.	.	.	.
8r	.	.	.	.	.	.	.
8G	Oh	.	.	.	.	.	.
8.A	Oh	2Am	.	voice	.	93.587	A:min
8.c	Oh	.	.	.	.	.	.
16c	Oh	.	.	.	.	.	.
[16A	_	.	.	.	.	.	.
=34	=34	=34	=34	=34	=34	=34	=34
8A]	_	2FM	.	voice	.	95.043	F:maj
8r	.	.	.	.	.	.	.
[4a	Oh	.	.	.	.	.	.
16a]	_	2GM	.	voice	.	96.498	G:maj
8b	ev-	.	.	.	.	.	.
8a	-ery	.	.	.	.	.	.
16a	move	.	.	.	.	.	.
16g	_	.	.	.	.	.	.
[16g	I	.	.	.	.	.	.
=35	=35	=35	=35	=35	=35	=35	=35
8g]	_	2CM	newline	voice	.	97.954	C:maj
16g	make	.	.	.	.	.	.
[16a	_	.	.	.	.	.	.
8a]	_	.	.	.	.	.	.
16r	.	.	.	.	.	.	.
[16g	ache	.	.	.	.	.	.
8g]	_	2Am	.	voice	.	99.424	A:min
16e	_	.	.	.	.	.	.
16d	_	.	.	.	.	.	.
4c	_	.	.	.	.	.	.
=36	=36	=36	=36	=36	=36	=36	=36
4r	.	2FM	.	voice	.	100.895	F:maj
8r	.	.	.	.	.	.	.
[8c	Oh	.	.	.	.	.	.
16c]	_	2GM	.	voice	.	102.365	G:maj
8B	ba-	.	.	.	.	.	.
[16A	-by	.	.	.	.	.	.
16A]	_	.	.	.	.	.	.
16A	please	.	.	.	.	.	.
8G	_	.	.	.	.	.	.
=37	=37	=37	=37	=37	=37	=37	=37
4r	.	1Am	.	voice	.	103.835	A:min
8e	don't	.	.	.	.	.	.
4.G	go	.	.	.	.	.	.
4A	_	.	.	.	.	.	.
=38	=38	=38	=38	=38	=38	=38	=38
1r	.	1Am	.	voice	.	106.775	A:min
=39	=39	=39	=39	=39	=39	=39	=39
4c	I	2CM	newline	voice	.	109.715	C:maj
8c	I	.	.	.	.	.	.
8G	I	.	.	.	.	.	.
8A	I	2Am	.	voice	.	111.196	A:min
16A	I	.	.	.	.	.	.
8.c	_	.	.	.	.	.	.
16c	I	.	.	.	.	.	.
[16A	_	.	.	.	.	.	.
=40	=40	=40	=40	=40	=40	=40	=40
8A]	_	2FM	.	voice	.	112.677	F:maj
8r	.	.	.	.	.	.	.
8.r	.	.	.	.	.	.	.
16G	You	.	.	.	.	.	.
8G	hurt	2GM	.	voice	.	114.158	G:maj
8B	me	.	.	.	.	.	.
8d	to	.	.	.	.	.	.
8f	my	.	.	.	.	.	.
=41	=41	=41	=41	=41	=41	=41	=41
16e	soul	2CM	.	voice	A	115.639	C:maj
[8.c	_	.	.	.	.	.	.
8c]	_	.	.	.	.	.	.
16c	Oh	.	.	.	A	.	.
[16G-	_	.	.	.	.	.	.
8G-]	_	2Am	.	voice	.	117.12	A:min
16A	oh	.	.	.	.	.	.
8c	_	.	.	.	.	.	.
8c	oh	.	.	.	.	.	.
16c	oh	.	.	.	.	.	.
=42	=42	=42	=42	=42	=42	=42	=42
8A	_	2FM	.	voice	.	118.601	F:maj
8r	.	.	.	.	.	.	.
8r	.	.	.	.	.	.	.
[8a	You	.	.	.	.	.	.
16a]	_	2GM	.	voice	.	120.082	G:maj
8g	hurt	.	.	.	.	.	.
16f	me	.	.	.	.	.	.
8d	to	.	.	.	.	.	.
[8d	my	.	.	.	.	.	.
=43	=43	=43	=43	=43	=43	=43	=43
8d]	_	2CM	newline	voice	.	121.563	C:maj
16g	soul	.	.	.	A	.	.
[16e	_	.	.	.	.	.	.
16e]	_	.	.	.	.	.	.
16r	.	.	.	.	.	.	.
16e	oh	.	.	.	A	.	.
16d	_	.	.	.	.	.	.
4.c	_	2Am	.	voice	.	123.001	A:min
[8d	oh	.	.	.	A	.	.
=44	=44	=44	=44	=44	=44	=44	=44
8d]	_	2FM	.	voice	.	124.439	F:maj
8e	_	.	.	.	.	.	.
8c	_	.	.	.	.	.	.
8r	.	.	.	.	.	.	.
8B	dar-	2GM	.	voice	.	125.877	G:maj
8B	-ling	.	.	.	.	.	.
4G	please	.	.	.	.	.	.
=45	=45	=45	=45	=45	=45	=45	=45
4r	.	1Am	.	voice	.	127.315	A:min
8e	don't	.	.	.	.	.	.
4.G	go	.	.	.	A	.	.
4A	_	.	.	.	.	.	.
=46	=46	=46	=46	=46	=46	=46	=46
2r	.	1Am	.	voice	.	130.191	A:min
2r	.	.	.	.	.	.	.
=47	=47	=47	=47	=47	=47	=47	=47
*>Letter>C	*>Letter>C	*>Letter>C	*>Letter>C	*>Letter>C	*>Letter>C	*>Letter>C	*>Letter>C
*>Label>Bridge	*>Label>Bridge	*>Label>Bridge	*>Label>Bridge	*>Label>Bridge	*>Label>Bridge	*>Label>Bridge	*>Label>Bridge
4r	.	1Am	newline	voice	.	133.067	A:min
16r	.	.	.	.	.	.	.
16c	When	.	.	.	.	.	.
8d	I	.	.	.	.	.	.
8e	read	.	.	.	.	.	.
16g	the	.	.	.	.	.	.
[16e	let-	.	.	.	.	.	.
16e]	_	.	.	.	.	.	.
8d	-ter	.	.	.	.	.	.
[16c	you	.	.	.	.	.	.
=48	=48	=48	=48	=48	=48	=48	=48
8c]	_	1GM	.	voice	.	135.968	G:maj
8d	sent	.	.	.	.	.	.
16d	me	.	.	.	.	.	.
16c	you	.	.	.	.	.	.
16d	made	.	.	.	.	.	.
16c	me	.	.	.	.	.	.
8d	mad	.	.	.	C	.	.
8e	mad	.	.	.	C	.	.
16e	mad	.	.	.	C	.	.
8.d	_	.	.	.	.	.	.
=49	=49	=49	=49	=49	=49	=49	=49
4r	.	1Am	.	voice	.	138.869	A:min
16r	.	.	.	.	.	.	.
8e	When	.	.	.	.	.	.
16g	I	.	.	.	.	.	.
8a	read	.	.	.	.	.	.
8cc	the	.	.	.	.	.	.
8a	news	.	.	.	.	.	.
16g	that	.	.	.	.	.	.
[16e	it	.	.	.	.	.	.
=50	=50	=50	=50	=50	=50	=50	=50
8e]	_	1GM	.	voice	.	141.77	G:maj
8g	broke	.	.	.	.	.	.
16d	me	.	.	.	.	.	.
16c	you	.	.	.	.	.	.
16d	made	.	.	.	.	.	.
16c	me	.	.	.	.	.	.
8d	sad	.	.	.	C	.	.
8e	sad	.	.	.	C	.	.
16e	sad	.	.	.	C	.	.
8.d	_	.	.	.	.	.	.
=51	=51	=51	=51	=51	=51	=51	=51
4r	.	1Am	newline	voice	.	144.672	A:min
16r	.	.	.	.	.	.	.
16E	But	.	.	.	.	.	.
16A	I	.	.	.	.	.	.
[16c	still	.	.	.	.	.	.
16c]	_	.	.	.	.	.	.
8e	love	.	.	.	.	.	.
16g	you	.	.	.	.	.	.
4g	so	.	.	.	A	.	.
=52	=52	=52	=52	=52	=52	=52	=52
8.r	.	1GM	.	voice	.	147.567	G:maj
16e	and	.	.	.	.	.	.
16g	I	.	.	.	.	.	.
8a	can't	.	.	.	.	.	.
8a	let	.	.	.	.	.	.
8cc	you	.	.	.	.	.	.
16a	go	.	.	.	A	.	.
8g	_	.	.	.	.	.	.
8r	.	.	.	.	.	.	.
=53	=53	=53	=53	=53	=53	=53	=53
8r	.	1FM	.	voice	.	150.462	F:maj
8a	I	.	.	.	.	.	.
16a	love	.	.	.	.	.	.
8.g	_	.	.	.	.	.	.
16d	you	.	.	.	.	.	.
8.c	_	.	.	.	.	.	.
8r	.	.	.	.	.	.	.
8r	.	.	.	.	.	.	.
=54	=54	=54	=54	=54	=54	=54	=54
8r	.	1GM	.	voice	.	153.357	G:maj
8cc	Ooh	.	.	.	.	.	.
8.r	.	.	.	.	.	.	.
16cc	uh	.	.	.	.	.	.
16cc	ba-	.	.	.	.	.	.
16cc	-by	.	.	.	.	.	.
16cc	I	.	.	.	.	.	.
8g	love	.	.	.	.	.	.
16a	ya	.	.	.	.	.	.
8cc	_	.	.	.	.	.	.
=55	=55	=55	=55	=55	=55	=55	=55
*>Letter>B	*>Letter>B	*>Letter>B	*>Letter>B	*>Letter>B	*>Letter>B	*>Letter>B	*>Letter>B
*>Label>Verse	*>Label>Verse	*>Label>Verse	*>Label>Verse	*>Label>Verse	*>Label>Verse	*>Label>Verse	*>Label>Verse
1r	.	2CM	newline	guitar	.	156.252	C:maj
.	.	2Am	.	guitar	.	157.725	A:min
=56	=56	=56	=56	=56	=56	=56	=56
1r	.	2FM	.	guitar	.	159.198	F:maj
.	.	2GM	.	guitar	.	160.672	G:maj
=57	=57	=57	=57	=57	=57	=57	=57
1r	.	2CM	.	guitar	.	162.145	C:maj
.	.	2Am	.	guitar	.	163.618	A:min
=58	=58	=58	=58	=58	=58	=58	=58
1r	.	2FM	.	guitar	.	165.091	F:maj
.	.	2GM	.	guitar	.	166.565	G:maj
=59	=59	=59	=59	=59	=59	=59	=59
1r	.	2CM	newline	guitar	.	168.038	C:maj
.	.	2Am	.	guitar	.	169.484	A:min
=60	=60	=60	=60	=60	=60	=60	=60
1r	.	2FM	.	guitar	.	170.93	F:maj
.	.	2GM	.	guitar	.	172.376	G:maj
=61	=61	=61	=61	=61	=61	=61	=61
1r	.	1Am	.	guitar	.	173.822	A:min
=62	=62	=62	=62	=62	=62	=62	=62
1r	.	1Am	.	guitar	.	176.714	A:min
=63	=63	=63	=63	=63	=63	=63	=63
8c	Oh	2CM	newline	voice	.	179.607	C:maj
8r	.	.	.	.	.	.	.
8c	oh	.	.	.	.	.	.
8G	oh	.	.	.	.	.	.
8.A	oh	2Am	.	voice	.	181.074	A:min
16A	oh	.	.	.	.	.	.
8.c	_	.	.	.	.	.	.
16c	oh	.	.	.	A	.	.
=64	=64	=64	=64	=64	=64	=64	=64
4A	_	2FM	.	voice	.	182.542	F:maj
4r	.	.	.	.	.	.	.
8G	You	2GM	.	voice	.	184.009	G:maj
8B	don't	.	.	.	.	.	.
8d	have	.	.	.	.	.	.
8f	to	.	.	.	.	.	.
=65	=65	=65	=65	=65	=65	=65	=65
16e	go	2CM	.	voice	A	185.477	C:maj
8.c	_	.	.	.	.	.	.
8r	.	.	.	.	.	.	.
8G	Oh	.	.	.	.	.	.
8A	oh	2Am	.	voice	.	186.945	A:min
16r	.	.	.	.	.	.	.
4c	oh	.	.	.	.	.	.
16c	oh	.	.	.	A	.	.
=66	=66	=66	=66	=66	=66	=66	=66
4A	_	2FM	.	voice	.	188.412	F:maj
4r	.	.	.	.	.	.	.
8G	You	2GM	.	voice	.	189.88	G:maj
8B	don't	.	.	.	.	.	.
8d	have	.	.	.	.	.	.
8f	to	.	.	.	.	.	.
=67	=67	=67	=67	=67	=67	=67	=67
16e	go	2CM	newline	voice	A	191.348	C:maj
[8.c	_	.	.	.	.	.	.
8c]	_	.	.	.	.	.	.
8G	Oh	.	.	.	.	.	.
8A	Oh	2Am	.	voice	.	192.794	A:min
8r	.	.	.	.	.	.	.
8c	oh	.	.	.	.	.	.
16c	oh	.	.	.	A	.	.
[16A	_	.	.	.	.	.	.
=68	=68	=68	=68	=68	=68	=68	=68
8A]	_	2FM	.	voice	.	194.241	F:maj
8r	.	.	.	.	.	.	.
16r	.	.	.	.	.	.	.
[8.a	Oh	.	.	.	.	.	.
8a]	_	2GM	.	voice	.	195.688	G:maj
8.g	ba-	.	.	.	.	.	.
16e	-by	.	.	.	.	.	.
8r	.	.	.	.	.	.	.
=69	=69	=69	=69	=69	=69	=69	=69
4r	.	1Am	.	voice	.	197.135	A:min
16g	Babe	.	.	.	.	.	.
8.e	_	.	.	.	.	.	.
8r	.	.	.	.	.	.	.
4e	please	.	.	.	.	.	.
8r	.	.	.	.	.	.	.
=70	=70	=70	=70	=70	=70	=70	=70
4g	please	1Am	.	voice	.	200.028	A:min
8r	.	.	.	.	.	.	.
16g	please	.	.	.	.	.	.
8.a	_	.	.	.	.	.	.
8r	.	.	.	.	.	.	.
16a	please	.	.	.	.	.	.
8.b	_	.	.	.	.	.	.
=71	=71	=71	=71	=71	=71	=71	=71
*>Letter>B2	*>Letter>B2	*>Letter>B2	*>Letter>B2	*>Letter>B2	*>Letter>B2	*>Letter>B2	*>Letter>B2
*>Label>Outro	*>Label>Outro	*>Label>Outro	*>Label>Outro	*>Label>Outro	*>Label>Outro	*>Label>Outro	*>Label>Outro
8r	.	2CM	newline	guitar	.	202.922	C:maj
16e	Uh	.	.	.	.	.	.
8c	oh	.	.	.	.	.	.
16d	uh	.	.	.	.	.	.
16c	oh	.	.	.	.	.	.
16r	.	.	.	.	.	.	.
16d#	uh	2Am	.	guitar	.	204.366	A:min
8e	oh	.	.	.	.	.	.
8.c	ba-	.	.	.	.	.	.
8c	-by	.	.	.	.	.	.
=72	=72	=72	=72	=72	=72	=72	=72
8r	.	2FM	.	guitar	.	205.81	F:maj
16d	uh	.	.	.	.	.	.
8e-	oh	.	.	.	.	.	.
16c	I	.	.	.	.	.	.
16e-	rea-	.	.	.	.	.	.
16c	-lly	.	.	.	.	.	.
16g	love	2GM	.	guitar	.	207.255	G:maj
8f	you	.	.	.	.	.	.
8e-	ba-	.	.	.	.	.	.
8.c	-by	.	.	.	.	.	.
=73	=73	=73	=73	=73	=73	=73	=73
8r	.	2CM	.	guitar	.	208.699	C:maj
16d	Ooh	.	.	.	.	.	.
8c	ooh	.	.	.	.	.	.
16d	ooh	.	.	.	.	.	.
16c	ooh	.	.	.	.	.	.
16r	.	.	.	.	.	.	.
8d	ooh	2Am	.	guitar	.	210.143	A:min
8e-	oh	.	.	.	.	.	.
16c	dar-	.	.	.	.	.	.
16A	_	.	.	.	.	.	.
[8A	-lin'	.	.	.	.	.	.
=74	=74	=74	=74	=74	=74	=74	=74
8A]	_	2FM	.	guitar	.	211.587	F:maj
8r	.	.	.	.	.	.	.
4r	.	.	.	.	.	.	.
8.B	Oh	2GM	.	guitar	.	213.032	G:maj
8.A	_	.	.	.	.	.	.
[8G	_	.	.	.	.	.	.
=75	=75	=75	=75	=75	=75	=75	=75
4G]	_	2CM	newline	guitar	.	214.476	C:maj
4r	.	.	.	.	.	.	.
8G	oh	2Am	.	guitar	.	215.926	A:min
4.A	_	.	.	.	.	.	.
=76	=76	=76	=76	=76	=76	=76	=76
4r	.	2FM	.	guitar	.	217.376	F:maj
16r	.	.	.	.	.	.	.
16g	Oh	.	.	.	A	.	.
[8a	_	.	.	.	.	.	.
16a]	_	2GM	.	guitar	.	218.827	G:maj
16r	.	.	.	.	.	.	.
8.b	ba-	.	.	.	.	.	.
16b	-by	.	.	.	.	.	.
8a	I	.	.	.	.	.	.
=77	=77	=77	=77	=77	=77	=77	=77
16a	still	2CM	.	guitar	.	220.277	C:maj
16g	_	.	.	.	.	.	.
8g	love	.	.	.	.	.	.
8g	you	.	.	.	.	.	.
4.e	so	.	.	.	A	.	.
.	.	2Am	.	guitar	.	221.727	A:min
4r	.	.	.	.	.	.	.
=78	=78	=78	=78	=78	=78	=78	=78
8r	.	2FM	.	guitar	.	223.177	F:maj
4.cc	Oh	.	.	.	A	.	.
8.b	ba-	2GM	.	guitar	.	224.627	G:maj
16a	-by	.	.	.	.	.	.
4a	I	.	.	.	.	.	.
=79	=79	=79	=79	=79	=79	=79	=79
8g	still	2CM	newline	guitar	.	226.078	C:maj
8g	love	.	.	.	.	.	.
8g	you	.	.	.	.	.	.
16g	so	.	.	.	A	.	.
[16a	_	.	.	.	.	.	.
4a]	_	2Am	.	guitar	.	227.525	A:min
16r	.	.	.	.	.	.	.
16e-	Oh	.	.	.	A	.	.
16d	_	.	.	.	.	.	.
[16c	_	.	.	.	.	.	.
=80	=80	=80	=80	=80	=80	=80	=80
4c]	_	2FM	.	guitar	.	228.972	F:maj
4r	.	.	.	.	.	.	.
2d	Oh	2GM	.	guitar	.	230.42	G:maj
=81	=81	=81	=81	=81	=81	=81	=81
8r	.	2CM	.	guitar	.	231.867	C:maj
8A	Oh	.	.	.	.	.	.
8c	Oh	.	.	.	.	.	.
8G	Oh	.	.	.	.	.	.
4A	Oh	2Am	.	guitar	.	233.315	A:min
16A	oh	.	.	.	.	.	.
8c	_	.	.	.	.	.	.
16c	oh	.	.	.	.	.	.
=82	=82	=82	=82	=82	=82	=82	=82
2A	_	2FM	.	guitar	.	234.762	F:maj
4r	.	2GM	.	guitar	.	236.209	G:maj
8A	Yeah	.	.	.	.	.	.
8G	_	.	.	.	.	.	.
=83	=83	=83	=83	=83	=83	=83	=83
8r	.	2CM	newline	guitar	.	237.657	C:maj
8c	Ah	.	.	.	.	.	.
8c	Ah	.	.	.	.	.	.
8G	ah	.	.	.	.	.	.
4A	ah	2Am	.	guitar	.	239.079	A:min
16A	ah	.	.	.	.	.	.
8c	_	.	.	.	.	.	.
16c	ah	.	.	.	.	.	.
=84	=84	=84	=84	=84	=84	=84	=84
4.A	_	2FM	.	guitar	.	240.501	F:maj
8r	.	.	.	.	.	.	.
8r	.	2GM	.	guitar	.	241.923	G:maj
8B-	Oh	.	.	.	.	.	.
8A	_	.	.	.	.	.	.
8A-	_	.	.	.	.	.	.
=85	=85	=85	=85	=85	=85	=85	=85
8G	_	2CM	.	guitar	.	243.346	C:maj
8r	.	.	.	.	.	.	.
8c	Ah	.	.	.	.	.	.
8G	ah	.	.	.	.	.	.
4A	ah	2Am	.	guitar	.	244.768	A:min
16A	ah	.	.	.	.	.	.
8c	_	.	.	.	.	.	.
16r	.	.	.	.	.	.	.
=86	=86	=86	=86	=86	=86	=86	=86
8c	ah	2FM	.	guitar	.	246.19	F:maj
4A	_	.	.	.	.	.	.
8r	.	.	.	.	.	.	.
2r	.	2GM	.	guitar	.	247.613	G:maj
=87	=87	=87	=87	=87	=87	=87	=87
*>Label>>Fadeout	*>Label>>Fadeout	*>Label>>Fadeout	*>Label>>Fadeout	*>Label>>Fadeout	*>Label>>Fadeout	*>Label>>Fadeout	*>Label>>Fadeout
[2b-	Ooh	2CM	newline	guitar	.	249.035	C:maj
4.b-]	_	2Am	.	guitar	.	250.373	A:min
[8a	_	.	.	.	.	.	.
=88	=88	=88	=88	=88	=88	=88	=88
2a]	_	2FM	.	guitar	.	251.711	F:maj
4.b-	_	2GM	.	guitar	.	253.049	G:maj
8cc	_	.	.	.	.	.	.
=89	=89	=89	=89	=89	=89	=89	=89
16e	ooh	2CM	.	guitar	.	254.387	C:maj
[8.e-	_	.	.	.	.	.	.
8e-]	_	.	.	.	.	.	.
16c	yeah	.	.	.	.	.	.
[8.A	_	.	.	.	.	.	.
.	.	2Am	.	guitar	.	255.725	A:min
8A]	_	.	.	.	.	.	.
4r	.	.	.	.	.	.	.
=90	=90	=90	=90	=90	=90	=90	=90
1r	.	2FM	.	guitar	.	257.063	F:maj
.	.	2GM	.	guitar	.	258.4	G:maj
r;	.	1r;	.	r	.	259.738	N.C.
r;	.	1r;	.	r	.	263.236	N.C.
*-	*-	*-	*-	*-	*-	*-	*-
!!!BillboardChartDate: 1973/11/24
!!!BillboardPeak: 20
!!!BillboardWeeksOnChart: 16
!!!COC: Led Zeppelin
!!!ENC: Nathaniel Condit-Schultz
!!!EST: Awating manual error checking and editing.
!!!OTL: D'yer Mak'er
!!!RDF**chordsym: original McGill chord annotation + (implied pitch class set, with bass pitch in first position)
!!!RDF**harmony: **recip + pitch class of root + harmonic quality
!!!RDF**leadinstrument: original McGill primary instrumentation annotation
!!!RDF**phrase: newline = linebreak in original McGill transcription
!!!RDF**timestamp: McGill audio timestamp in seconds
!!!RDT: 2017/01/12/
!!!SampleActualRank: 40
!!!SampleID#: 0749
!!!SampleTargetRank: 39
